svgs/comdirect_phototan.svg

<svg width="192" height="192" viewBox="0 0 192 192" fill="none" xmlns="http://www.w3.org/2000/svg">
<path d="M103.67 155.73H87.4004V172H103.67V155.73Z" stroke="black" stroke-width="8" stroke-miterlimit="6" stroke-linecap="round" stroke-linejoin="round"/>
<path d="M170.97 155.73H154.7V172H170.97V155.73Z" stroke="black" stroke-width="8" stroke-miterlimit="6" stroke-linecap="round" stroke-linejoin="round"/>
<path d="M137.344 155.73H121.074V172H137.344V155.73Z" stroke="black" stroke-width="8" stroke-miterlimit="6" stroke-linecap="round" stroke-linejoin="round"/>
<path d="M170.97 121.969H154.7V138.239H170.97V121.969Z" stroke="black" stroke-width="8" stroke-miterlimit="6" stroke-linecap="round" stroke-linejoin="round"/>
<path d="M137.344 121.969H121.074V138.239H137.344V121.969Z" stroke="black" stroke-width="8" stroke-miterlimit="6" stroke-linecap="round" stroke-linejoin="round"/>
<path d="M36.2698 155.73H20V172H36.2698V155.73Z" stroke="black" stroke-width="8" stroke-miterlimit="6" stroke-linecap="round" stroke-linejoin="round"/>
<path d="M36.2698 87.8579H20V104.128H36.2698V87.8579Z" stroke="black" stroke-width="8" stroke-miterlimit="6" stroke-linecap="round" stroke-linejoin="round"/>
<path d="M36.2698 121.969H20V138.239H36.2698V121.969Z" stroke="black" stroke-width="8" stroke-miterlimit="6" stroke-linecap="round" stroke-linejoin="round"/>
<path d="M69.9437 121.969H53.6738V138.239H69.9437V121.969Z" stroke="black" stroke-width="8" stroke-miterlimit="6" stroke-linecap="round" stroke-linejoin="round"/>
<path d="M36.2698 53.8963H20V70.1662H36.2698V53.8963Z" stroke="black" stroke-width="8" stroke-miterlimit="6" stroke-linecap="round" stroke-linejoin="round"/>
<path d="M69.9437 53.8963H53.6738V70.1662H69.9437V53.8963Z" stroke="black" stroke-width="8" stroke-miterlimit="6" stroke-linecap="round" stroke-linejoin="round"/>
<path d="M103.67 53.8963H87.4004V70.1662H103.67V53.8963Z" stroke="black" stroke-width="8" stroke-miterlimit="6" stroke-linecap="round" stroke-linejoin="round"/>
<path d="M137.295 87.8579H121.026V104.128H137.295V87.8579Z" stroke="black" stroke-width="8" stroke-miterlimit="6" stroke-linecap="round" stroke-linejoin="round"/>
<path d="M103.67 87.8579H87.4004V104.128H103.67V87.8579Z" stroke="black" stroke-width="8" stroke-miterlimit="6" stroke-linecap="round" stroke-linejoin="round"/>
<path d="M170.97 53.8963H154.7V70.1662H170.97V53.8963Z" stroke="black" stroke-width="8" stroke-miterlimit="6" stroke-linecap="round" stroke-linejoin="round"/>
<path d="M137.344 53.8963H121.074V70.1662H137.344V53.8963Z" stroke="black" stroke-width="8" stroke-miterlimit="6" stroke-linecap="round" stroke-linejoin="round"/>
<path d="M171.317 20H155.047V36.2698H171.317V20Z" stroke="black" stroke-width="8" stroke-miterlimit="6" stroke-linecap="round" stroke-linejoin="round"/>
<path d="M69.7554 20H53.4856V36.2698H69.7554V20Z" stroke="black" stroke-width="8" stroke-miterlimit="6" stroke-linecap="round" stroke-linejoin="round"/>
<path d="M137.692 20H121.422V36.2698H137.692V20Z" stroke="black" stroke-width="8" stroke-miterlimit="6" stroke-linecap="round" stroke-linejoin="round"/>
</svg>

<svg width="192" height="192" fill="none" xmlns="http://www.w3.org/2000/svg"><path d="M103.67 155.73H87.4V172h16.27v-16.27ZM170.97 155.73H154.7V172h16.27v-16.27ZM137.344 155.73h-16.27V172h16.27v-16.27ZM170.97 121.969H154.7v16.27h16.27v-16.27ZM137.344 121.969h-16.27v16.27h16.27v-16.27ZM36.27 155.73H20V172h16.27v-16.27ZM36.27 87.858H20v16.27h16.27v-16.27ZM36.27 121.969H20v16.27h16.27v-16.27ZM69.944 121.969h-16.27v16.27h16.27v-16.27ZM36.27 53.896H20v16.27h16.27v-16.27ZM69.944 53.896h-16.27v16.27h16.27v-16.27ZM103.67 53.896H87.4v16.27h16.27v-16.27ZM137.295 87.858h-16.269v16.27h16.269v-16.27ZM103.67 87.858H87.4v16.27h16.27v-16.27ZM170.97 53.896H154.7v16.27h16.27v-16.27ZM137.344 53.896h-16.27v16.27h16.27v-16.27ZM171.317 20h-16.27v16.27h16.27V20ZM69.755 20h-16.27v16.27h16.27V20ZM137.692 20h-16.27v16.27h16.27V20Z" stroke="#000" stroke-width="8" stroke-miterlimit="6" stroke-linecap="round" stroke-linejoin="round"/></svg>
